svgs/sharp-light/computer-mouse-scrollwheel.svg

<svg xmlns="http://www.w3.org/2000/svg" viewBox="0 0 384 512"><!--! Font Awesome Pro 6.6.0 by @fontawesome - https://fontawesome.com License - https://fontawesome.com/license (Commercial License) Copyright 2024 Fonticons, Inc. --><path d="M224 480c70.7 0 128-57.3 128-128l0-320L32 32l0 320c0 70.7 57.3 128 128 128l64 0zM0 0L32 0 352 0l32 0 0 32 0 320c0 88.4-71.6 160-160 160l-64 0C71.6 512 0 440.4 0 352L0 32 0 0zM208 112l0 64 0 16-32 0 0-16 0-64 0-16 32 0 0 16z"/></svg>

<svg xmlns="http://www.w3.org/2000/svg" viewBox="0 0 384 512"><!--! Font Awesome Pro 6.4.0 by @fontawesome - https://fontawesome.com License - https://fontawesome.com/license (Commercial License) Copyright 2023 Fonticons, Inc. --><path d="M224 480c70.7 0 128-57.3 128-128V32H32V352c0 70.7 57.3 128 128 128h64zM0 0H32 352h32V32 352c0 88.4-71.6 160-160 160H160C71.6 512 0 440.4 0 352V32 0zM208 112v64 16H176V176 112 96h32v16z"/></svg>
